X: 9203
T: Damo's
R: slip jig
M: 9/8
K: Adorian
|:A2 e edB BAG|ABG AEG DEG|A2 e edB BAG|gde cdB BAG|
A2 e edB BAG|ABG AEG DEG|A3 AEG DEF|1 G3 DEG cAB:|2 G3 DEG EDB,||
A,2 E EDB, EDB,|A,2 E EDB, A,B,G,|A,2 E EDE GAB|ABG AEG EDB,|
A,2 E EDB, EDB,|A,2 E EDB, A,B,G,|A,2 E EDE GAB|ABd deg gab||
|:a3 aba age|g3 g2 e deg|a3 aba age|g2 e deg c'ab|
a3 aba age|g2 e deg edB|ABd edg edB|1 ABd ede gab:|2 ABd edg edB||

